Backpack-Common/Icons/Assets/Media.xcassets/loyalty-lg.imageset/loyalty-lg.svg

<svg viewBox="0 0 24 24" xmlns="http://www.w3.org/2000/svg"><path d="M17 2H7C6.44772 2 6 2.44772 6 3V10.6459C6 11.7822 6.64201 12.821 7.65836 13.3292L11 15V19H9C7.89543 19 7 19.8954 7 21V22H17V21C17 19.8954 16.1046 19 15 19H13V15L16.3416 13.3292C17.358 12.821 18 11.7822 18 10.6459V3C18 2.44772 17.5523 2 17 2Z" fill="#161616"/><path d="M19 9.5C19 9.22386 19.2273 9.00641 19.4949 8.93829C20.3601 8.71803 21 7.93374 21 7C21 6.06626 20.3601 5.28197 19.4949 5.06171C19.2273 4.99359 19 4.77614 19 4.5V3.5C19 3.22386 19.225 2.99672 19.499 3.03082C21.4726 3.27643 23 4.95985 23 7C23 9.04015 21.4726 10.7236 19.499 10.9692C19.225 11.0033 19 10.7761 19 10.5V9.5Z" fill="#161616"/><path d="M4.50506 8.93829C4.77267 9.00641 5 9.22386 5 9.5V10.5C5 10.7761 4.77502 11.0033 4.50099 10.9692C2.52736 10.7236 1 9.04015 1 7C1 4.95985 2.52736 3.27643 4.50099 3.03082C4.77502 2.99672 5 3.22386 5 3.5V4.5C5 4.77614 4.77267 4.99359 4.50506 5.06171C3.63988 5.28197 3 6.06626 3 7C3 7.93374 3.63988 8.71803 4.50506 8.93829Z" fill="#161616"/></svg>

<svg xmlns="http://www.w3.org/2000/svg" viewBox="0 0 24 24"><path d="M17 2H7a1 1 0 0 0-1 1v7.646a3 3 0 0 0 1.658 2.683L11 15v4H9a2 2 0 0 0-2 2v1h10v-1a2 2 0 0 0-2-2h-2v-4l3.342-1.67A3 3 0 0 0 18 10.645V3a1 1 0 0 0-1-1m2 7.5c0-.276.227-.494.495-.562a2 2 0 0 0 0-3.876C19.227 4.994 19 4.776 19 4.5v-1c0-.276.225-.503.499-.47a4 4 0 0 1 0 7.94c-.274.033-.499-.194-.499-.47zM4.505 8.938c.268.068.495.286.495.562v1c0 .276-.225.503-.499.47a4 4 0 0 1 0-7.94c.274-.033.499.194.499.47v1c0 .276-.227.494-.495.562a2 2 0 0 0 0 3.876"/></svg>
